X: 13
T: Je cuide / De tous biens plaine
N: Derived from Jap3013-Je_cuide__De_tous_biens_plaine.krn
C: Jean Japart
%%abc-version 2.0
%%abcx-abcm2ps-target-version 5.9.1 (29 Sep 2008)
%%abc-creator hum2abc beta
%%abcx-conversion-date 2019/02/16 20:40:05
%%abc-edited-by Jesse Rodin
%%abc-edited-by Chris Gage 09-18-2013
%%abcx-initial-encoding-date 2013/10/24/
%%humdrum-veritas 1292525494
%%humdrum-veritas-data 4168530108
%%linebreak <none>
%%barnumbers 0
L: 1/4
M: 2/1
Q: 1/2=120
%%staves [1 2 3 4]
V: 1 clef=treble
V: 2 clef=treble-8
V: 3 clef=treble-8
V: 4 clef=bass
K: F
[V:1] z8 | 
[V:2] G8 | 
[V:3] z8 | 
[V:4] G,6F,E, | 
[V:1] z8 | 
[V:2] B4B4 | 
[V:3] z8 | 
[V:4] D,2E,3D,G,2- | 
[V:1] z8 | 
[V:2] A4A4 | 
[V:3] z8 | 
[V:4] G,2^F,E,F,4 | 
[V:1] z8 | 
[V:2] G2B3cd2 | 
[V:3] G8- | 
[V:4] G,4z2G,,2 | 
[V:1] z8 | 
[V:2] _e2d2_e4 | 
[V:3] G8 | 
[V:4] C,2B,,2C,4 | 
[V:1] z8 | 
[V:2] d3ef2g2- | 
[V:3] B8 | 
[V:4] G,,A,,B,,C,D,2E,2- | 
[V:1] z8 | 
[V:2] g2^fe^f4 | 
[V:3] A8 | 
[V:4] E,2D,C,D,4 | 
[V:1] G6F2 | 
[V:2] g3fd4 | 
[V:3] G4B4- | 
[V:4] G,,4z2D,2 | 
[V:1] G4A4 | 
[V:2] z2e2f4 | 
[V:3] B4c4 | 
[V:4] E,2G,2F,2A,2 | 
[V:1] B6A2 | 
[V:2] g6fe | 
[V:3] d8 | 
[V:4] G,4z2D,2- | 
[V:1] B2AGF3G | 
[V:2] d2e2d2cB | 
[V:3] z8 | 
[V:4] D,2C,2D,3E, | 
[V:1] ABc2B2A2- | 
[V:2] A2F2G2A2 | 
[V:3] z4d4 | 
[V:4] F,G,A,2G,2F,2 | 
[V:1] A2G4^F2 | 
[V:2] B2c2A4 | 
[V:3] _e4d4 | 
[V:4] _E,2C,2D,4 | 
[V:1] G8- | 
[V:2] G4z2G2 | 
[V:3] B4c2B2 | 
[V:4] z2G,,2C,2G,,2- | 
[V:1] G8 | 
[V:2] B3c/d/_e2d2 | 
[V:3] d4c2d2 | 
[V:4] G,,A,,B,,2C,2B,,2 | 
[V:1] z8 | 
[V:2] _efg4^f2 | 
[V:3] G2B2A4 | 
[V:4] C,2G,,2D,4 | 
[V:1] z4G4 | 
[V:2] g4e4 | 
[V:3] G4z2G2 | 
[V:4] G,,2C,3D,E,2 | 
[V:1] A4c4 | 
[V:2] f2edc4 | 
[V:3] F4F4 | 
[V:4] D,2C,B,,A,,4 | 
[V:1] B4B4 | 
[V:2] z2d4cB | 
[V:3] G2B4AG | 
[V:4] G,,8 | 
[V:1] A6GF | 
[V:2] c3de2f2 | 
[V:3] A3Bc2d2- | 
[V:4] z8 | 
[V:1] E4D4 | 
[V:2] g4f4 | 
[V:3] d2^c2d4 | 
[V:4] z4D,4 | 
[V:1] G4F2D2 | 
[V:2] e4z2g2- | 
[V:3] z2B2A2B2 | 
[V:4] E,4F,2G,2 | 
[V:1] EDCB,A,2B,2 | 
[V:2] gfe2d2B2 | 
[V:3] c4F2G2 | 
[V:4] C,4D,2G,,2 | 
[V:1] A,2D4^C2 | 
[V:2] c2G2A4 | 
[V:3] A2D2E4 | 
[V:4] F,,2B,,2A,,4 | 
[V:1] D8 | 
[V:2] F4f4 | 
[V:3] D4z2d2 | 
[V:4] z2B,,3A,,B,,2 | 
[V:1] z8 | 
[V:2] e2d4g2- | 
[V:3] c2B2G4 | 
[V:4] C,2G,,4B,,2 | 
[V:1] z4D4 | 
[V:2] g2^f2g4 | 
[V:3] A4G2B2- | 
[V:4] C,2D,2G,,2G,2- | 
[V:1] G4A4 | 
[V:2] z2e2^f2e^f | 
[V:3] B2c2A4 | 
[V:4] G,F,E,2D,4 | 
[V:1] B4A2B2 | 
[V:2] g4f2d2 | 
[V:3] G4z4 | 
[V:4] G,,4z2G,2 | 
[V:1] G2c3BB2- | 
[V:2] _e4f2d2 | 
[V:3] z8 | 
[V:4] C,2_E,2B,,4 | 
[V:1] B2A2B4 | 
[V:2] c4B2d2 | 
[V:3] z8 | 
[V:4] F,4B,,4 | 
[V:1] c2B4AG | 
[V:2] _e2d4cB | 
[V:3] z8 | 
[V:4] z2G,,2B,,2C,2 | 
[V:1] F8- | 
[V:2] A6d2- | 
[V:3] z8 | 
[V:4] D,6B,,2- | 
[V:1] F8 | 
[V:2] d2cBc4 | 
[V:3] B4A4 | 
[V:4] B,,2A,,G,,F,,4 | 
[V:1] z8 | 
[V:2] d4z2_e2- | 
[V:3] F4G4- | 
[V:4] B,,6C,2- | 
[V:1] z4A4 | 
[V:2] edcBc4 | 
[V:3] G2^FE^F4 | 
[V:4] C,B,,A,,G,,A,,4 | 
[V:1] B3AB2A2- | 
[V:2] B2d4cB | 
[V:3] G4z4 | 
[V:4] G,,4z4 | 
[V:1] A2G4^F2 | 
[V:2] cBAGA4 | 
[V:3] z8 | 
[V:4] z4D,4 | 
[V:1] G6A2- | 
[V:2] G4c4- | 
[V:3] z8 | 
[V:4] E,4C,2F,2- | 
[V:1] A2G2F4 | 
[V:2] c2c2d2=B2 | 
[V:3] z8 | 
[V:4] F,2E,2D,4 | 
[V:1] E6F2- | 
[V:2] c4z2A2 | 
[V:3] z2G2A4 | 
[V:4] C,4A,,2D,2- | 
[V:1] F2E2D4- | 
[V:2] B2c2d2cB | 
[V:3] F2G4D2 | 
[V:4] D,2C,2B,,3C, | 
[V:1] D2^C=B,C4 | 
[V:2] A2B2A4 | 
[V:3] F2G2E4 | 
[V:4] D,2G,,2A,,4 | 
[V:1] D8- | 
[V:2] F4z2F2 | 
[V:3] D8 | 
[V:4] z4B,,4 | 
[V:1] D8 | 
[V:2] G2B3cd2- | 
[V:3] z4D4 | 
[V:4] G,,3A,,B,,3C, | 
[V:1] z8 | 
[V:2] d2cBA4 | 
[V:3] F4F4 | 
[V:4] D,4D,4 | 
[V:1] z4D4 | 
[V:2] B2c2d4 | 
[V:3] G8 | 
[V:4] G,,2C,4B,,2 | 
[V:1] E4F4 | 
[V:2] c4d4- | 
[V:3] z4A4 | 
[V:4] C,2E,2D,4 | 
[V:1] G6A2- | 
[V:2] d4e4 | 
[V:3] B4c4 | 
[V:4] G,,4z4 | 
[V:1] A4G2B2- | 
[V:2] f4e2d2- | 
[V:3] d4z2d2 | 
[V:4] D,4E,2G,2- | 
[V:1] B2AG^F3E | 
[V:2] dBc2A4 | 
[V:3] _e4d4 | 
[V:4] G,2C,2D,4 | 
[V:1] G2d3cBA | 
[V:2] G4g2f2 | 
[V:3] B6c2 | 
[V:4] G,,6A,,2 | 
[V:1] B6A2- | 
[V:2] g4z2e2 | 
[V:3] d6c2 | 
[V:4] G,,4G,2A,2 | 
[V:1] AGG4^F2 | 
[V:2] f2d3cd2 | 
[V:3] d2B2A4 | 
[V:4] D,2G,2D,4 | 
[V:1] G8 |]  
[V:2] d4d4 |]  
[V:3] G8 |]  
[V:4] G,,8 |]  



